X:1945
T:Bourrée à Ribeyrolle 2
M:3/8
L:1/16
K:C
defdef|gfedc2|defdef|g6|\
defdef|gfedc2|defdef|g2g4:|
|:defGAB|c2dedc|GABGAB|c2d4|\
defGAB|c2dedc|GABGAB|c6:|


